X:85
T:Jay's Frolick. JJo.085
B:J.Johnson Choice Collection Vol 8 1758
Z:vmp.Simon Wilson 2013 www.village-music-project.org.uk
Z:Dance added by John Chambers 2017
M:6/8
L:1/8
%Q:3/8=120
K:C
|:\
{d}cBc {d}cBc | cag fed | cAf dBg | eca fdB |\
{d}cBc {d}cBc | cag fed | e^fg Da^f | {f}g3G3 :|
|:\
{a}g^fg {a}g^fg | (ga)(_b b)ag | a=fd gec | fdc BAG |\
cAc BGB | ceg Bdg | Afe dcB | {B}c3C3 :|
%%begintext align
%% Lead thro' the 2d Cu. Cast up and cast off .|
%% Lead thro the 3d Cu. cast up and foot it :| Man
%% turn 3 at Bottom, Wo. 3 at Top at the same
%% Time :||. Wo. at Bottom, and Man at Top :||:
%% foot it Corners and turn :|| hands 6 round :||.
%% Right hands and Left at top :||:
%%endtext
